assets/img/jetsmart/habilidadesTecnologicasLucia.svg

<svg width="287" height="35" viewBox="0 0 287 35" fill="none" xmlns="http://www.w3.org/2000/svg">
<path d="M245.492 28.5205H242.161L241.646 30.3086H239.466L242.638 21.1232H245.1L248.309 30.3086H246.006L245.492 28.5205ZM243.581 23.6461L242.663 26.7936H245.002L244.12 23.6461L243.875 22.6786H243.839L243.581 23.6461ZM249.293 30.3086V20.768L251.216 20.6823V30.3086H249.293ZM255.119 24.3075V28.1041C255.119 28.3899 255.192 28.5981 255.339 28.7287C255.486 28.8593 255.707 28.9247 256.001 28.9247C256.099 28.9247 256.205 28.9165 256.319 28.9002C256.433 28.8838 256.523 28.8634 256.589 28.8389L256.699 30.2229C256.568 30.28 256.389 30.329 256.16 30.3698C255.931 30.4107 255.686 30.4311 255.425 30.4311C254.682 30.4311 254.127 30.231 253.76 29.831C253.4 29.4309 253.221 28.8757 253.221 28.1653V24.3075H252.388V22.8868H253.306L253.625 21.2089L255.119 21.0742V22.8868H256.772V24.3075H255.119ZM261.812 29.5983L261.775 29.586C261.546 29.8554 261.26 30.0636 260.918 30.2106C260.575 30.3576 260.191 30.4311 259.766 30.4311C259.064 30.4311 258.505 30.231 258.088 29.831C257.672 29.4227 257.464 28.8022 257.464 27.9694C257.464 27.6265 257.521 27.3121 257.635 27.0263C257.758 26.7406 257.929 26.4997 258.15 26.3038C258.378 26.0996 258.656 25.9404 258.982 25.8261C259.309 25.7118 259.685 25.6547 260.109 25.6547C260.387 25.6547 260.644 25.6751 260.881 25.7159C261.118 25.7485 261.334 25.7975 261.53 25.8629V25.4342C261.53 25.0586 261.424 24.7851 261.211 24.6136C260.999 24.434 260.636 24.3442 260.121 24.3442C259.713 24.3442 259.354 24.3769 259.044 24.4422C258.742 24.5075 258.419 24.6096 258.076 24.7484L257.917 23.2297C258.293 23.0664 258.689 22.9439 259.105 22.8623C259.53 22.7806 259.983 22.7398 260.464 22.7398C261.011 22.7398 261.473 22.8011 261.848 22.9235C262.224 23.0378 262.526 23.2175 262.755 23.4624C262.991 23.7073 263.159 24.0176 263.257 24.3932C263.363 24.7688 263.416 25.2097 263.416 25.7159V30.3086H261.959L261.812 29.5983ZM261.53 27.1243C261.44 27.0835 261.305 27.0468 261.126 27.0141C260.946 26.9814 260.73 26.9651 260.477 26.9651C259.652 26.9651 259.24 27.2917 259.24 27.9449C259.24 28.3123 259.338 28.5695 259.534 28.7165C259.73 28.8553 259.983 28.9247 260.293 28.9247C260.456 28.9247 260.611 28.9042 260.758 28.8634C260.905 28.8144 261.036 28.7491 261.15 28.6675C261.265 28.5858 261.354 28.496 261.42 28.398C261.493 28.2919 261.53 28.1776 261.53 28.0551V27.1243ZM269.797 27.9816C269.797 28.349 269.744 28.6879 269.638 28.9981C269.532 29.3002 269.365 29.5615 269.136 29.782C268.907 29.9942 268.614 30.1616 268.254 30.2841C267.895 30.3984 267.466 30.4556 266.968 30.4556C266.519 30.4556 266.095 30.4107 265.695 30.3208C265.303 30.2392 264.952 30.1126 264.641 29.9412L264.837 28.3735C265.148 28.5532 265.499 28.6879 265.891 28.7777C266.282 28.8593 266.638 28.9002 266.956 28.9002C267.34 28.9002 267.613 28.8308 267.777 28.692C267.948 28.5532 268.034 28.3735 268.034 28.1531C268.034 27.9571 267.948 27.8061 267.777 27.6999C267.605 27.5856 267.393 27.4877 267.14 27.406C266.887 27.3162 266.609 27.2264 266.307 27.1366C266.013 27.0386 265.74 26.908 265.486 26.7447C265.233 26.5814 265.021 26.3691 264.85 26.1078C264.678 25.8384 264.592 25.4873 264.592 25.0545C264.592 24.7198 264.65 24.4136 264.764 24.136C264.878 23.8502 265.05 23.6094 265.278 23.4134C265.515 23.2093 265.809 23.0501 266.16 22.9358C266.511 22.8215 266.927 22.7643 267.409 22.7643C267.785 22.7643 268.152 22.8011 268.511 22.8745C268.871 22.9399 269.205 23.0378 269.516 23.1685L269.357 24.7239C269.046 24.5932 268.707 24.4993 268.34 24.4422C267.973 24.3769 267.65 24.3442 267.372 24.3442C267.062 24.3442 266.821 24.4014 266.65 24.5157C266.487 24.63 266.405 24.781 266.405 24.9688C266.405 25.1566 266.487 25.3036 266.65 25.4097C266.821 25.5077 267.034 25.5975 267.287 25.6791C267.54 25.7608 267.809 25.8465 268.095 25.9363C268.389 26.0262 268.663 26.1527 268.916 26.316C269.169 26.4711 269.377 26.6834 269.54 26.9529C269.712 27.2141 269.797 27.5571 269.797 27.9816Z" fill="#0C6292"/>
<path d="M4 8L283 8.00002" stroke="url(#paint0_linear_1044_2654)" stroke-width="7.6545" stroke-linecap="round"/>
<ellipse cx="7.85148" cy="7.65452" rx="7.85148" ry="7.65452" transform="matrix(0.999974 0.00726364 -0.00764229 0.999971 247.846 0.486328)" fill="#0C6292"/>
<defs>
<linearGradient id="paint0_linear_1044_2654" x1="43.6998" y1="7.14686" x2="595.762" y2="8.78542" gradientUnits="userSpaceOnUse">
<stop stop-color="#00B0CA"/>
<stop offset="0.7" stop-color="#00C5E2" stop-opacity="0"/>
</linearGradient>
</defs>
</svg>

<svg xmlns="http://www.w3.org/2000/svg" width="287" height="35" fill="none"><path fill="#0C6292" d="M245.492 28.52h-3.331l-.515 1.789h-2.18l3.172-9.186h2.462l3.209 9.186h-2.303zm-1.911-4.874-.918 3.148h2.339l-.882-3.148-.245-.967h-.036zm5.712 6.663v-9.541l1.923-.086v9.627zm5.826-6.001v3.796q0 .429.22.625.22.195.662.196.147 0 .318-.025.171-.024.27-.061l.11 1.384q-.196.085-.539.147-.344.06-.735.061-1.114 0-1.665-.6-.54-.6-.539-1.666v-3.857h-.833v-1.421h.918l.319-1.678 1.494-.135v1.813h1.653v1.42zm6.693 5.29-.037-.012q-.344.405-.857.625-.514.22-1.152.22-1.053 0-1.678-.6-.624-.612-.624-1.862 0-.514.171-.943.184-.428.515-.722.342-.306.832-.478a3.4 3.4 0 0 1 1.127-.171q.417 0 .772.06.355.05.649.148v-.429q0-.563-.319-.82-.318-.27-1.09-.27-.612 0-1.077.098a6 6 0 0 0-.968.306l-.159-1.518a5.8 5.8 0 0 1 1.188-.368 7 7 0 0 1 1.359-.122q.821 0 1.384.184.564.172.907.538.355.368.502.931.159.564.159 1.323v4.593h-1.457zm-.282-2.474a2 2 0 0 0-.404-.11 3.7 3.7 0 0 0-.649-.049q-1.237 0-1.237.98 0 .551.294.771.294.21.759.209.245 0 .465-.062.22-.074.392-.195.172-.123.27-.27a.6.6 0 0 0 .11-.343zm8.267.858q0 .55-.159 1.016a2 2 0 0 1-.502.784q-.343.318-.882.502-.539.172-1.286.172-.673 0-1.273-.135a3.8 3.8 0 0 1-1.054-.38l.196-1.567q.466.27 1.054.404.587.122 1.065.122.575 0 .821-.208a.66.66 0 0 0 .257-.539.5.5 0 0 0-.257-.453 2.6 2.6 0 0 0-.637-.294 17 17 0 0 0-.833-.27 3.6 3.6 0 0 1-.821-.391 2.15 2.15 0 0 1-.636-.637q-.258-.404-.258-1.053 0-.502.172-.919.172-.429.514-.723.356-.306.882-.477.526-.172 1.249-.172.564 0 1.102.11.54.099 1.005.295l-.159 1.555a4.3 4.3 0 0 0-1.017-.282 5.6 5.6 0 0 0-.968-.098q-.465 0-.722.172a.53.53 0 0 0-.245.453.5.5 0 0 0 .245.44q.257.148.637.27t.808.257q.441.135.821.38.38.232.624.637.258.392.257 1.029"/><path stroke="url(#a)" stroke-linecap="round" stroke-width="7.654" d="M4 8h279"/><ellipse cx="7.851" cy="7.655" fill="#0C6292" rx="7.851" ry="7.655" transform="rotate(.413 55.182 34121.262)skewX(-.022)"/><defs><linearGradient id="a" x1="43.7" x2="595.762" y1="7.147" y2="8.785" gradientUnits="userSpaceOnUse"><stop stop-color="#00B0CA"/><stop offset=".7" stop-color="#00C5E2" stop-opacity="0"/></linearGradient></defs></svg>
